X:30
T:Penington's Rant
M:6/8
L:1/8
N:The 'E' note in the fourth measure of the 2nd part may be played natural.
B:Thompson's Compleat Collection of 200 Favourite Country Dances, vol. 1 (London, 1757)
Z:Transcribed and edited by Fynnian Titford-Mock, 2007
Z:abc's:AK/Fiddler's Companion
K:Bb
(A/B/4c/4)|:B>AG F>ED|EFG FED|cde dcB|AcB AGF|BAG FED|
EFG FED|FAe dec|1 (B3 B2) (A/B/4c/4):|2 (B3 B2)c|:dcB fed|cBA edc|
BAG dcB|ABG ^FED|D^FA cBA|Bcd edc|d^fg BcA|(G3 G2) (A/B/4/c/4):|

